elements/rpg-character/lib/hatColor/4.svg

<svg xmlns="http://www.w3.org/2000/svg" fill="none" width="113" height="142" viewBox="0 0 113 142"><path d="M28 17h5v5h-5v-5Zm0 5h5v5h-5v-5Zm5-5h5v5h-5v-5Zm5 0h5v5h-5v-5Zm5 0h5v5h-5v-5Zm5 0h5v5h-5v-5Zm5 0h5v5h-5v-5Zm5 0h5v5h-5v-5Zm5 0h5v5h-5v-5Zm5 0h5v5h-5v-5Zm5 0h5v5h-5v-5Zm5 0h5v5h-5v-5Zm-45 5h5v5h-5v-5Zm5 0h5v5h-5v-5Zm5 0h5v5h-5v-5Zm5 0h5v5h-5v-5Zm5 0h5v5h-5v-5Zm5 0h5v5h-5v-5Zm5 0h5v5h-5v-5Zm5 0h5v5h-5v-5Zm5 0h5v5h-5v-5Zm5 0h5v5h-5v-5Zm-55 5h5v5h-5v-5Zm5 0h5v5h-5v-5Zm5 0h5v5h-5v-5Zm5 0h5v5h-5v-5Zm5 0h5v5h-5v-5Zm5 0h5v5h-5v-5Zm5 0h5v5h-5v-5Zm5 0h5v5h-5v-5Zm5 0h5v5h-5v-5Zm5 0h5v5h-5v-5Zm5 0h5v5h-5v-5Zm5 0h5v5h-5v-5Zm-55 5h5v5h-5v-5Zm5 0h5v5h-5v-5Zm5 0h5v5h-5v-5Zm5 0h5v5h-5v-5Zm5 0h5v5h-5v-5Zm5 0h5v5h-5v-5Zm5 0h5v5h-5v-5Zm5 0h5v5h-5v-5Zm5 0h5v5h-5v-5Zm5 0h5v5h-5v-5Zm5 0h5v5h-5v-5Zm5 0h5v5h-5v-5Zm5 0h5v5h-5v-5Zm0-5h5v5h-5v-5ZM73 37h5v5h-5v-5Zm5 0h5v5h-5v-5Zm5 0h5v5h-5v-5Zm-5 5h5v5h-5v-5Zm5 0h5v5h-5v-5Zm-45-5h5v5h-5v-5Zm5 0h5v5h-5v-5Zm5 0h5v5h-5v-5Zm5 0h5v5h-5v-5Zm5 0h5v5h-5v-5Zm5 0h5v5h-5v-5Zm-20 5h5v5h-5v-5Zm5 0h5v5h-5v-5Zm5 0h5v5h-5v-5Zm5 0h5v5h-5v-5Zm-35-5h5v5h-5v-5Zm5 0h5v5h-5v-5Zm-5 5h5v5h-5v-5Z" fill="#89EDD5"/><path d="M78 27h10v20H78V27Zm0-5h5v5h-5v-5Zm-5 0h5v5h-5v-5Zm-5 0h5v5h-5v-5Zm5 5h5v5h-5v-5Zm-10-5h5v5h-5v-5Zm-20-5h40v5H43v-5Z" fill="#676668" style="mix-blend-mode:hard-light"/></svg>

<svg width="113" height="142" viewBox="0 0 113 142" fill="none" xmlns="http://www.w3.org/2000/svg">
<path d="M28 17H33V22H28V17Z" fill="#89EDD5"/>
<path d="M28 22H33V27H28V22Z" fill="#89EDD5"/>
<path d="M33 17H38V22H33V17Z" fill="#89EDD5"/>
<path d="M38 17H43V22H38V17Z" fill="#89EDD5"/>
<path d="M43 17H48V22H43V17Z" fill="#89EDD5"/>
<path d="M48 17H53V22H48V17Z" fill="#89EDD5"/>
<path d="M53 17H58V22H53V17Z" fill="#89EDD5"/>
<path d="M58 17H63V22H58V17Z" fill="#89EDD5"/>
<path d="M63 17H68V22H63V17Z" fill="#89EDD5"/>
<path d="M68 17H73V22H68V17Z" fill="#89EDD5"/>
<path d="M73 17H78V22H73V17Z" fill="#89EDD5"/>
<path d="M78 17H83V22H78V17Z" fill="#89EDD5"/>
<path d="M33 22H38V27H33V22Z" fill="#89EDD5"/>
<path d="M38 22H43V27H38V22Z" fill="#89EDD5"/>
<path d="M43 22H48V27H43V22Z" fill="#89EDD5"/>
<path d="M48 22H53V27H48V22Z" fill="#89EDD5"/>
<path d="M53 22H58V27H53V22Z" fill="#89EDD5"/>
<path d="M58 22H63V27H58V22Z" fill="#89EDD5"/>
<path d="M63 22H68V27H63V22Z" fill="#89EDD5"/>
<path d="M68 22H73V27H68V22Z" fill="#89EDD5"/>
<path d="M73 22H78V27H73V22Z" fill="#89EDD5"/>
<path d="M78 22H83V27H78V22Z" fill="#89EDD5"/>
<path d="M23 27H28V32H23V27Z" fill="#89EDD5"/>
<path d="M28 27H33V32H28V27Z" fill="#89EDD5"/>
<path d="M33 27H38V32H33V27Z" fill="#89EDD5"/>
<path d="M38 27H43V32H38V27Z" fill="#89EDD5"/>
<path d="M43 27H48V32H43V27Z" fill="#89EDD5"/>
<path d="M48 27H53V32H48V27Z" fill="#89EDD5"/>
<path d="M53 27H58V32H53V27Z" fill="#89EDD5"/>
<path d="M58 27H63V32H58V27Z" fill="#89EDD5"/>
<path d="M63 27H68V32H63V27Z" fill="#89EDD5"/>
<path d="M68 27H73V32H68V27Z" fill="#89EDD5"/>
<path d="M73 27H78V32H73V27Z" fill="#89EDD5"/>
<path d="M78 27H83V32H78V27Z" fill="#89EDD5"/>
<path d="M23 32H28V37H23V32Z" fill="#89EDD5"/>
<path d="M28 32H33V37H28V32Z" fill="#89EDD5"/>
<path d="M33 32H38V37H33V32Z" fill="#89EDD5"/>
<path d="M38 32H43V37H38V32Z" fill="#89EDD5"/>
<path d="M43 32H48V37H43V32Z" fill="#89EDD5"/>
<path d="M48 32H53V37H48V32Z" fill="#89EDD5"/>
<path d="M53 32H58V37H53V32Z" fill="#89EDD5"/>
<path d="M58 32H63V37H58V32Z" fill="#89EDD5"/>
<path d="M63 32H68V37H63V32Z" fill="#89EDD5"/>
<path d="M68 32H73V37H68V32Z" fill="#89EDD5"/>
<path d="M73 32H78V37H73V32Z" fill="#89EDD5"/>
<path d="M78 32H83V37H78V32Z" fill="#89EDD5"/>
<path d="M83 32H88V37H83V32Z" fill="#89EDD5"/>
<path d="M83 27H88V32H83V27Z" fill="#89EDD5"/>
<path d="M73 37H78V42H73V37Z" fill="#89EDD5"/>
<path d="M78 37H83V42H78V37Z" fill="#89EDD5"/>
<path d="M83 37H88V42H83V37Z" fill="#89EDD5"/>
<path d="M78 42H83V47H78V42Z" fill="#89EDD5"/>
<path d="M83 42H88V47H83V42Z" fill="#89EDD5"/>
<path d="M38 37H43V42H38V37Z" fill="#89EDD5"/>
<path d="M43 37H48V42H43V37Z" fill="#89EDD5"/>
<path d="M48 37H53V42H48V37Z" fill="#89EDD5"/>
<path d="M53 37H58V42H53V37Z" fill="#89EDD5"/>
<path d="M58 37H63V42H58V37Z" fill="#89EDD5"/>
<path d="M63 37H68V42H63V37Z" fill="#89EDD5"/>
<path d="M43 42H48V47H43V42Z" fill="#89EDD5"/>
<path d="M48 42H53V47H48V42Z" fill="#89EDD5"/>
<path d="M53 42H58V47H53V42Z" fill="#89EDD5"/>
<path d="M58 42H63V47H58V42Z" fill="#89EDD5"/>
<path d="M23 37H28V42H23V37Z" fill="#89EDD5"/>
<path d="M28 37H33V42H28V37Z" fill="#89EDD5"/>
<path d="M23 42H28V47H23V42Z" fill="#89EDD5"/>
<g style="mix-blend-mode:hard-light">
<path d="M78 27H88V47H78V27Z" fill="#676668"/>
<path d="M78 22H83V27H78V22Z" fill="#676668"/>
<path d="M73 22H78V27H73V22Z" fill="#676668"/>
<path d="M68 22H73V27H68V22Z" fill="#676668"/>
<path d="M73 27H78V32H73V27Z" fill="#676668"/>
<path d="M63 22H68V27H63V22Z" fill="#676668"/>
<path d="M43 17H83V22H43V17Z" fill="#676668"/>
</g>
</svg>
